X:1
T:Amor io sento un respirar si dolce
T:Tiburtio Massaino
T:Amor io sento un respirar si dolce
C:Tiburtio Massaino
%%score [ 1 2 3 4 ]
L:1/8
Q:1/4=84
M:4/2
K:F
V:1 treble nm="Soprano" snm="S"
V:2 alto2 nm="Alto" snm="A"
V:3 alto nm="Tenor" snm="T"
V:4 tenor nm="Bass" snm="B"
V:1
 z16 |[K:Eb] z16 | z16 | z4 B4 G6 c2 | B4 A2 G4 E2 F2 G2 | A4 G4 z8 | z2 B2 G3 A B4 B4 | %7
w: |||A- mor io|sen- to un re- spi- rar si|dol- ce,|A- mor io sen- to un|
 E3 E F2 G2 A4 G4 | z4 z2 B2 B4 E4 | F4 F2 G4 G2 A2 G2 | c4 B2 B2 A4 G4 | z8 z4 G4 | %12
w: re- spi- rar si dol- ce,|A- mor io|sen- to un re- spi- rar si|dol- ce, Di lau- ra,|Di|
 A3 B c4 z4 d4 | c4 B4 f4 z2 B2 | A2 B2 c6 B2 A4 | G4 z2 G2 A2 G2 F4 | E2 E4 D2 E4 B4 | %17
w: lau- ra mia, Di|lau- ra mia in|que- sta piag- gi'a- pri-|ca, in que- sta piag-|gi'a- pri- * ca, Ch'an-|
 B4 B2 A4 G2 B4 | B4 z2 B2 B4 G2 c2- | c2 B2 A4 G4 z2 c2 | d6 e2 d4 e4 | c8 =B4 z2 c2 | %22
w: chor la fiamm' an- ti-|ca, Ch'an- chor la fiamm'|_ an- ti- ca, Nel|cor si ri- no-|vel- la, Nel|
 d6 e2 d4 e4 | c8 =B8 | z2 G2 G3 A B2 G2 c4 | B2 c4 c2 B2 A4 F2 | G4 E4 z2 B2 B3 c | %27
w: cor si ri- no-|vel- la,|E si leg- gia- dre'e bel-|la, Tu me la mo- stri a-|mo- re, E si leg-|
 d2 B2 e4 d2 G4 GA | B2 G2 c4 B2 G2 e3 d | c2 c2 =B4 c8 | z4 B4 c2 _d2 c4 | B2 e4 d2 c2 B2 c4 | %32
w: gia- dre'e bel- la, Tu me la|mo- stri a- mo- re, Tu me la|mo- stri a- mo- re,|Che di dol- cez-|za l'a- ni- ma si mo-|
 B4 z4 z2 c2 e2 d2 | z4 B4 c4 e4 | c2 B2 c4 A2 G4 G2 | F4 G2 E3 EEE F4 | G16 |] %37
w: re, si mo- re,|Che di dol-|cez- za l'a- ni- ma si|mo- re, l'a- ni- ma si mo-|re.|
V:2
 z16 |[K:Eb][K:treble] z8 z4 E4 | D4 C2 D4 E2 CD E2- | E2 F2 G4 C4 z2 G2 | F6 B,2 E2 C2 D2 E2 | %5
w: |A-|mor io sen- to un re- spi- rar|_ si dol- ce, A-|mor io sen- to un re- spi-|
 F4 G2 E4 D2 E4 | z4 E4 D6 E2 | C4 B,2 E4 D2 E2 G2 | F8 G2 E2 G2 G2 | B4 z2 B,4 C4 B,2 | %10
w: rar si dol- * ce,|A- mor io|sen- to un re- spi- rar si|dol- ce, un re- spi-|rar, un re- spi-|
 C4 D4 E4 D2 B2 | A4 G4 F4 z2 G2 | F4 E4 B4 z2 B,2 | C3 D E4 z4 G4 | A2 G2 F4 E2 E4 D2 | %15
w: rar si dol- ce, Di|lau- ra mia, Di|lau- ra mia, Di|lau- ra mia in|que- sta piag- gi'a- pri- *|
 E4 z2 E2 F2 B,2 C4- | C2 B,2 B,4 B,4 z2 G2 | F4 G2 E4 E2 F2 F2 | G4 D4 z8 | z16 | %20
w: ca, in que- sta piag-|* gi'a- pri- ca, Ch'an-|chor, Ch'an- chor la fiamm' an-|ti- ca,||
 z2 B2 B3 B B4 A2 G2- | G2 FE F4 G8 | z2 B2 B3 B B4 A2 G2- | G2 FE F4 G8 | z8 z2 E2 E3 F | %25
w: Nel cor si ri- no- vel-|* * * * la,|Nel cor si ri- no- vel-|* * * * la,|E si leg-|
 G2 E2 A4 G2 C4 CD | E3 F G8 G4 | z2 G2 G3 A B2 B2 c4 | B2 E4 EF G2 E2 A2 GF | G2 F2 z4 z8 | %30
w: gia- dre'e bel- la, Tu me la|mo- stri a- mo- re,|E si leg- gia- dre'e bel-|la, Tu me la mo- stri a- mo- * *|* re,|
 z8 z2 F2 E2 F2 | G4 G4 z2 E4 F2 | G2 D2 E3 D C6 =B,2 | z4 G4 G4 G2 E2- | E2 G2 G4 F2 E2 D2 E2- | %35
w: Che di dol-|cez- za l'a- ni-|ma si mo- * * re,|Che di dol- cez-|* za l'a- ni- ma si mo-|
 E2 D2 E2 C3 CCC D4 | E16 |] %37
w: * * re, l'a- ni- ma si mo-|re.|
V:3
 z16 |[K:Eb][K:treble-8] B8 G6 c2 | B4 A2 G4 E2 F2 G2 | A4 G4 z8 | z4 z2 E2 G2 G2 B4 | z8 z4 B4 | %6
w: |A- mor io|sen- to un re- spi- rar si|dol- ce,|un re- spi- rar,|A-|
 G6 c2 B4 G4 | A6 G2 F4 E4 | B8 E4 z2 e2 | d4 c2 d4 e2 cd e2- | e2 f2 g4 c4 z2 B2 | c3 d e4 z4 e4 | %12
w: mor io sen- to un|re- spi- rar si|dol- ce, A-|mor io sen- to un re- spi- rar|_ si dol- ce, Di|lau- ra mia, Di|
 d4 c4 B4 z2 d2 | e3 f g4 z8 | z16 | z4 G4 F2 G2 A4 | G4 F4 E4 z2 e2 | d4 e2 c2 c2 e4 d2 | %18
w: lau- ra mia, Di|lau- ra mia||in que- sta piag-|gi'a- pri- ca, Ch'an-|chor la fiamm' an- ti- *|
 e2 e2 f4 g4 e2 e2 | fe e4 d2 e4 z2 g2 | g8 f2 g3 f e2- | edcB c4 d4 z2 g2 | g8 f2 g3 f e2- | %23
w: ca, Ch'an- chor la fiamm' an-|ti- * * * ca, Nel|cor si ri- no- vel-|* * * * * la, Nel|cor si ri- no- vel-|
 edcB c4 d4 z2 d2 | e3 d c2 B4 c4 c2 | z2 e2 e3 f g2 e2 a4 | g2 c4 cd e2 B2 e4 | d4 z4 z2 e2 e3 e | %28
w: * * * * * la, E|si leg- gia- dre'e bel- la,|E si leg- gia- dre'e bel-|la, Tu me la mo- stri a- mo-|re, E si leg-|
 d2 e2 c4 d2 B2 c3 d | e2 f2 d4 c8 | z4 G4 A2 F2 A4 | G2 c4 B2 A2 G2 A4 | G4 z2 e4 f2 g2 d2 | %33
w: gia- dre'e bel- la, Tu me la|mo- stri a- mo- re,|Che di dol- cez-|za l'a- ni- ma si mo-|re, l'a- ni- ma si|
 e4 d2 d2 e4 B2 c2- | c2 d2 e4 c2 B4 B2 | B4 B2 A3 AAG B4 | B16 |] %37
w: mo- re, Che di dol- cez-|* za l'a- ni- ma mo-|mo- re, l'a- ni- ma si mo-|re.|
V:4
 z16 |[K:Eb][K:bass] z16 | z16 | z8 z4 E,4 | D,6 E,2 C,4 B,,2 E,2- | E,2 D,2 E,2 G,2 F,4 E,4 | %6
w: |||A-|mor io sen- to un re-|* spi- rar si dol- ce,|
 z16 | z16 | z4 B,4 G,6 C2 | B,4 A,2 G,4 E,2 F,2 G,2 | A,4 G,4 z4 G,4 | F,4 E,4 B,4 z2 E,2 | %12
w: ||A- mor io|sen- to un re- spi- rar si|dol- ce, Di|lau- ra mia, Di|
 F,3 G, A,4 z4 B,4 | A,4 G,4 F,4 z2 G,2 | F,2 G,2 A,4 G,4 F,4 | E,4 z2 E,2 _D,2 E,2 A,,3 B,, | %16
w: lau- ra mia, Di|lau- ra mia in|que- sta piag- gi'a- pri-|ca, in que- sta piag- *|
 C,2 E,2 B,,4 E,4 E,4 | B,4 G,2 A,4 C2 B,4 | E,4 B,4 G,4 C2 A,2- | A,2 G,2 F,4 E,4 C,4 | %20
w: * gi'a- pri- ca, Ch'an-|chor la fiamm' an- ti-|ca, Ch'an- chor la fiamm'|_ an- ti- ca, Nel|
 G,6 E,2 B,4 C4 | A,8 G,4 C,4 | G,6 E,2 B,4 C4 | A,8 G,8 | z2 E,2 E,3 F, G,2 E,2 A,4 | %25
w: cor si ri- no-|vel- la, Nel|cor si ri- no-|vel- la,|E si leg- gia- dre'e bel-|
 G,2 C,4 C,D, E,2 A,2 F,4 | E,4 z4 z2 G,2 G,3 A, | B,2 G,2 C4 B,2 E,4 E,F, | G,2 C2 A,4 G,4 z4 | %29
w: la, Tu me la mo- stri a- mo-|re, E si leg-|gia- dre'e bel- la, Tu me la|mo- stri a- mo- re,|
 z4 G,4 A,2 F,2 A,4 | G,4 z4 z8 | z16 | z4 z2 G,2 A,4 G,4 | z4 G,4 C4 G,2 A,2- | %34
w: Che di dol- cez-|za||si mo- re,|Che di dol- cez-|
 A,2 G,2 E,4 F,2 G,4 E,2 | B,,4 E,2 A,,3 A,,A,,C, B,,4 | E,16 |] %37
w: * za l'a- ni- ma mo-|mo- re, l'a- ni- ma si mo-|re.|

